X:1
T:Hört wunder über wunder
T:Horatio Vecchi
T:Source : Canzonette mit  3 Stimmen/ H.Vecchi und G.Capilupi---Nürnberg---P.Kauffmann---1606. Editor : André Vierendeels (27/02/17).
T:Hört wunder über wunder
T:©
T:©
T:©
T:©
T:©
T:©
C:Horatio Vecchi
Z:©
%%score [ 1 2 3 ]
L:1/8
Q:1/4=101
M:4/4
K:C
V:1 treble nm="Soprano" snm="S"
V:2 treble nm="Alto" snm="A"
V:3 treble-8 nm="Tenor" snm="T"
V:1
"^1)" z2 E2 E2 E2 | F2 E2 F4 | E4 z2 G2 | A2 G2 A2 B2 | c2 B2 A2 A2 | G4 G2 G2 | G2 A2 _B2 A2 | %7
w: Hört wun- der|ü- ber wun-|der, wir|wölln euch sin- gen|neu- e mäer je|zun- der, der|ha- ben wir all-|
w: Ein mal hat|sichs be- ge-|ben, das|drey Wei- ber so|ei- nig wur- den|e- ben, und|sat- zen auff ein|
 FEFG F2 F2 | E2 E2 E4 |[M:2/4] D4 ::[M:4/4] z2 A2 A2 c2 | c2 c2 c2 c2 | _B2 A2 G4 | A4 z4 | %14
w: hie _ _ _ _ ein|gan- zen plun-|der,|drumm schweigt und|mer- cket fleis- sig|auff mit wit-|zen,|
w: star- * * * * cke|Weth hie- ne-|ben,|welch ihr- en|Mann köndt ma- chen|zum grö- sten|Thor'n|
 z2 G2 G2 F2 | G2 A2 G2 F2 | G2 A2 G4 | G4 z2 F2 | F2 E2 F2 G2 | F2 D2 E2 F2 | E4 D4 :| %21
w: wir sehn, dasz|et- lich schon die|oh- ren spi-|tzen, wir|sehn, dasz et- lich|schon die oh- ren|spi- tzen.|
w: solt ha- ben|der Preiss und den|Ge- winn zu|vor'n, solt|ha- ben der Preiss|und Ge- winn zu|vo- ren.|
"^5)" z2 E2 E2 E2 | F2 E2 F4 | E4 z2 G2 | A2 G2 A2 B2 | c2 B2 A2 A2 | G4 G2 G2 | G2 A2 _B2 A2 | %28
w: Die frau stellt|sich bey wich-|ten, wür-|di- ger Hertz, ich|spott euch gar mit|nich- ten, bin|ichs denn o- der|
w: Sie sagt, ein|gu- te wei-|le, für-|war mein Herz ihr|köndt sie nicht trei-|len, denn ich|förcht dasz sie wegk|
 FEFG F2 F2 | E2 E2 E4 |[M:2/4] D4 ::[M:4/4] z2 A2 A2 c2 | c2 c2 c2 c2 | _B2 A2 G4 | A4 z4 | %35
w: nicht, _ _ _ _ dacht|er potz gich-|ten,|hie- mit der|Mûnch skutt und Plat-|ten wirdt in-|nen,|
w: sind _ _ _ _ et|_ lich Mei-|len,|Auch rath ich,|ihr bleibt hie, euch|will ge- bü-|ren|
 z2 G2 G2 F2 | G2 A2 G2 F2 | G2 A2 G4 | G4 z2 F2 | F2 E2 F2 G2 | F2 D2 E2 F2 | E4 !fermata!D4 :| %42
w: und fragt, sind|mei- ne Brü- der|lang von bin-|nen, und|fragt, sind mei- ne|Brü- der lang von|bin- nen?|
w: uns Mor- gen|erst ein Metz zu|ce- le- bri-|ren, uns|Mor- gen erst ein|Metz zy ce- le-|bri- ren.|
V:2
"^2)""^1)" z2 C2 B,2 ^C2 | D2 ^C2 D4 | ^C4 z2 D2 | F2 E2 F2 E2 | A2 G2 F2 F2 | E4 E2 E2 | %6
w: Hört wun- der|ü- ber wun-|der, wir|wölln euch sin- gen|neu- e mäer je|zun- der, der|
w: Die erst den|list er- dach-|te, dasz|sie irm Mann ein|star- chen Trunck zu-|brach- te, und|
 D2 C2 D2 C2 | DCDE D2 C2 | C2 B,2 ^C4 |[M:2/4] D4 ::[M:4/4] z2 F2 F2 G2 | A2 A2 A2 A2 | G2 F2 E4 | %13
w: ha- ben wir all-|hie _ _ _ _ ein|gan- zen plun-|der,|drumm schweigt und|mer- chet fleis- sig|auff mit wiit-|
w: als er schlieff bal-|biert _ _ _ _ sie|ihn sein fach-|te,|dasa er an|Bart und Haupt sah|so ver- but-|
 F4 z2 E2 | E2 D2 E2 F2 | E2 F2 E2 D2 | E4 E4 | z2 D2 D2 C2 |"^b" D2 E2 D2 B,2 | C2 D2 ^C2 D2- | %20
w: zen, wir|sehn, dasz et- lich|schon die oh- ren|spi- tzen,|wir sehn, dasz|et- lich schon die|oh- ren spi- *|
w: ten, Gleich|ei- nem Münch, zoch|im euch an ein|Kut- ten,|Gleich ei- nem|Müinch, zoch im euch|an ein Kut- *|
 D2 ^C2 D4 :|"^6)""^7)" z2 C2 B,2 ^C2 | D2 ^C2 D4 | ^C4 z2 D2 | F2 E2 F2 E2 | A2 G2 F2 F2 | %26
w: * * tzen.|Der an- der|sein Weib glau-|bet, dasz|er in sei- nen|Blei- dern setz er-|
w: * * ten.|Die drit ihrn|Mann ge- weg-|tet, der|als ein Leich- nam|in ein Sarck sich|
 E4 E2 E2 | D2 C2 D2 C2 | DCDE D2 C2 | C2 B,2 ^C4 |[M:2/4] D4 ::[M:4/4] z2 F2 F2 G2 | A2 A2 A2 A2 | %33
w: lau- bet, und|weil der neu- e|Prie- * * * * ster|Metz wolt hal-|ten,|rieth sie, dasz|er das Ampt ihm|
w: leg- te, qa|er auff sol- chem|sinn _ _ _ _ thet|so ver- har-|ren,|trug sie hin|in die Kirch den-|
 G2 F2 E4 | F4 z2 E2 | E2 D2 E2 F2 | E2 F2 E2 D2 | E4 E4 | z2 D2 D2 C2 |"^b" D2 E2 D2 B,2 | %40
w: hülff er- wal-|ten, dasz|er das Ampt ihm|hülff er war- *|* ten|dasz er das|Ampt ihm hülff er|
w: sel- ben Nar-|ren, trug|sie hin in die|Kirch den- sel- ben|Nar- ren,|trug sie hin|in die Kirch den-|
 C2 D2 ^C2 D2- | D2 ^C2 !fermata!D4 :| %42
w: war- * * *|* * ten.|
w: sel- ben Nar- *|* * ren.|
V:3
"^3)""^1)""^4)" z2 A2 ^G2 A2 | D2 A2 D4 | A4 z2 G2 | F2 G2 F2 G2 | F2 G2 A2 B2 | c4 c2 c2 | %6
w: Hört wun- der|ü- ber wun-|der, wir|wölln euch sin- gen|neu- e mäer je|zun- der, der|
w: So bald er|thet er- wa-|chen, die|frau sprach: Herz wolt|ihr nicht auch her-|na- chen, eur|
 _B2 A2 G2 A2 | _B6 A2 | A2 G2 A4 |[M:2/4] D4 ::[M:4/4] z2 d2 d2 e2 | f2 f2 f2 f2 | _B2 B2 c4 | %13
w: ha- ben wir all-|hie ein|gan- zen plun-|der,|drumm schweigt und|mer- cket fleis- sig|auff mit wit-|
w: Brü- der habn sich|auff den|Weg thun ma-|chen,|drauff er zur|ant- wort gab zor-|ni- ger mas-|
 F4 z2 c2 | c2 B2 c2 d2 | c2 A2 c2 d2 | c4 c4 | z2 _B2 B2 A2 | _B2 c2 B2 G2 | A2 _B2 A4- | A4 D4 :| %21
w: zen, wir|sehn, dasz et- lich|schon die oh- ren|spi- tzen,|wir sehn, dasz|et- lich schon die|oh- ren spi-|* tzen.|
w: sen, sie|sol- te ihn doch|un- ge spot- tet|las- sen,|sie sol- te|ihn doch un- ge-|spot- tet las-|* sen.|
"^8)" z2 A2 ^G2 A2 | D2 A2 D4 | A4 z2 G2 | F2 G2 F2 G2 | F2 G2 A2 B2 | c4 c2 c2 | _B2 A2 G2 A2 | %28
w: Wie nun war|an- ge- gan-|gen, das|meck- ampt, welchs der|Bru- der an- ge-|fan- gen, mit|un- ge schick- ter|
w: Er sah auff|al- le- mach-|ten, sprach,|wer ich nicht ge-|stor- ben, so wers|sa- chen, ich|müszt der Thor- heit|
 _B6 A2 | A2 G2 A4 |[M:2/4] D4 ::[M:4/4] z2 d2 d2 e2 | f2 f2 f2 f2 |"^b""^b" B2 B2 c4 | F4 z2 c2 | %35
w: Ce- re-|mon und G'san-|ge,|der an- der|na- cked kam, kniet|auff die Er-|den, der|
w: mei- ner|Nach- bar la-|chen,|Jetzt ur- theil,|wel- che un- ter|di- sen drey-|en, mit|
 c2 B2 c2 d2 | c2 A2 c2 d2 | c4 c4 | z2 _B2 B2 A2 | _B2 c2 B2 G2 | A2 _B2 A4- | A4 !fermata!D4 :| %42
w: Tod- te wus- te|nicht was wol- te|wer- den,|der Tod- te|wuw- te nicht was|wol- te wer-|* den.|
w: rhum den Sieg er-|hal- ten für den|zweu- en,|mit rhum den|Sieg er- hal- ten|für den zwey-|* en.|

